X:14
T:A and E Reel
C:Kenny Baker
N:Transcribed by Henry
R:bluegrass
L:1/8
Q:1/4=240
M:4/4
K:A
CB, |: "A"A,C E[AA] c2 cd | cB AF ED CD | "E"EG Bc d2 Bc | de dc BA GF | 
|EG Bc d2 Bc | de dc BA GF | EF GA Bd cB |1 "A"Aa ec A2 CB, :|2 "A"Aa ec A2 ag |]
|: ae cc Ac eg | ae ce ab c'2 | "E"eg be gb (3fgf | ec dB GB E2 |
| gb ge fg fe | df dc BA GF | EF GA Bd cB | |1 "A"Aa ec A2 ag :|2 "A"Ac eg a2 Ac |]
|: e2 (3cec AF EC | A,C EG AB ce | "E"d2 BG (3FGF EC | B,C EF G2 Bc | 
|dc de dc BA | GF GA GF ED | DE DE CE CB, |1 "A"A,C EG [A2A2] Ac :|2 "A"A,C EG [A2A2] Ae |] 
|: (3cec Ae (3cec Ae | (3cec AF (3EFE Ce | "E"(3ded Be (3ded Be | (3ded BG (3FGF Ee | 
|(3ded Be (3ded Be | (3ded BG (3FGF E2 | EF GE FG EG | "A"Ac eg a2 Ae :|
|"A"Ac eg a2 ag | Ac eg a2 eg | ae ga (3fgf ed | "E"cA Bc "A"A2 EG | Ac BA FD EF | AF EC A,4 | 

